packages/sources/icons/src/vitamix/list-settings-line.svg

<svg width="16" height="16" viewBox="0 0 16 16" fill="none" xmlns="http://www.w3.org/2000/svg">
<path fill-rule="evenodd" clip-rule="evenodd" d="M14.6667 2.66666H1.33333V4H14.6667V2.66666ZM1.33333 7.33333H7.33333V8.66666H1.33333V7.33333ZM1.33333 12H6V13.3333H1.33333V12ZM13.7827 8.68333L14.5534 8.42266L15.22 9.57733L14.6094 10.114C14.6862 10.4784 14.6862 10.8549 14.6094 11.2193L15.22 11.756L14.5534 12.9107L13.7827 12.65C13.5094 12.8967 13.184 13.0867 12.826 13.2033L12.6667 14H11.3334L11.1734 13.2027C10.8195 13.087 10.4939 12.8985 10.2174 12.6493L9.44669 12.9107L8.78003 11.756L9.39069 11.2193C9.31383 10.8549 9.31383 10.4784 9.39069 10.114L8.78003 9.57733L9.44669 8.42266L10.2174 8.68333C10.4907 8.43666 10.816 8.24666 11.174 8.13L11.3334 7.33333H12.6667L12.8267 8.13066C13.184 8.24666 13.5094 8.43733 13.7827 8.684V8.68333ZM13.3333 10.6667C13.3333 11.403 12.7364 12 12 12C11.2636 12 10.6667 11.403 10.6667 10.6667C10.6667 9.93028 11.2636 9.33333 12 9.33333C12.7364 9.33333 13.3333 9.93028 13.3333 10.6667Z" fill="#001018"/>
</svg>

<svg width="16" height="16" fill="none" xmlns="http://www.w3.org/2000/svg"><path fill-rule="evenodd" clip-rule="evenodd" d="M14.667 2.667H1.333V4h13.334V2.667zM1.333 7.333h6v1.334h-6V7.333zm0 4.667H6v1.333H1.333V12zm12.45-3.317.77-.26.667 1.154-.61.537c.076.364.076.74 0 1.105l.61.537-.667 1.155-.77-.261a2.655 2.655 0 0 1-.957.553l-.16.797h-1.333l-.16-.797a2.665 2.665 0 0 1-.956-.554l-.77.262-.667-1.155.61-.537a2.678 2.678 0 0 1 0-1.105l-.61-.537.667-1.154.77.26c.274-.246.599-.436.957-.553l.16-.797h1.333l.16.798c.357.116.682.306.956.553zm-.45 1.984a1.333 1.333 0 1 1-2.666 0 1.333 1.333 0 0 1 2.666 0z" fill="#001018"/></svg>
